svgs/sharp-regular/message-heart.svg

<svg xmlns="http://www.w3.org/2000/svg" viewBox="0 0 512 512"><!--! Font Awesome Pro 6.6.0 by @fontawesome - https://fontawesome.com License - https://fontawesome.com/license (Commercial License) Copyright 2024 Fonticons, Inc. --><path d="M160 512l48-32 96-64 160 0 48 0 0-48 0-320 0-48L464 0 48 0 0 0 0 48 0 368l0 48 48 0 64 0 48 0 0 38.3 0 9.7 0 48zM277.4 376.1L208 422.3l0-6.3 0-48-48 0L48 368 48 48l416 0 0 320-160 0-14.5 0-12.1 8.1zM368 171.2c0-32.7-26.5-59.2-59.2-59.2l-2.4 0c-15.9 0-31.2 6.2-42.7 17.2l-7.7 7.4-7.7-7.4c-11.5-11-26.8-17.2-42.7-17.2l-2.4 0c-32.7 0-59.2 26.5-59.2 59.2c0 16.1 6.6 31.5 18.2 42.7l82.8 79.6L256 304.1l11.1-10.7 82.8-79.6c11.6-11.2 18.2-26.6 18.2-42.7z"/></svg>

<svg xmlns="http://www.w3.org/2000/svg" viewBox="0 0 512 512"><!--! Font Awesome Pro 6.4.2 by @fontawesome - https://fontawesome.com License - https://fontawesome.com/license (Commercial License) Copyright 2023 Fonticons, Inc. --><path d="M160 512l48-32 96-64H464h48V368 48 0H464 48 0V48 368v48H48h64 48v38.3V464v48zM277.4 376.1L208 422.3V416 368H160 48V48H464V368H304 289.5l-12.1 8.1zM144 171.2c0 16.1 6.6 31.5 18.2 42.7l82.8 79.6L256 304.1l11.1-10.7 82.8-79.6c11.6-11.2 18.2-26.6 18.2-42.7c0-32.7-26.5-59.2-59.2-59.2h-2.4c-15.9 0-31.2 6.2-42.7 17.2l-7.7 7.4-7.7-7.4c-11.5-11-26.8-17.2-42.7-17.2h-2.4c-32.7 0-59.2 26.5-59.2 59.2z"/></svg>
